X: 1
T: Lasses Trust in Providence
O: Shetland
S: via B. McOwen, arr. T. Traub 4-26-2004
R: Reel
M: 4/4
L: 1/8
K: D
A \
|:"D"d2 de fdef | "(Bm)"d2 df "A7"ecBA \
| "D"d2 de "Bm"fdef | "G"dBAF "A7"E4 :|
|:"D"A2 AB ADFA | "G"d2 dc BABd \
| "D"A A2 B ADFA |1 "A7"GFEC "D"DEFG :|2 "A7"GFEC "D"D3 |]
